X: 2647
T: Banish Misfortune
R: jig
M: 6/8
K: Dmajor
d2 e|fed cAG|A2d =cAG|EFD DdD|FDF GFG|
A^GA =cAD|(3EFG A cde|fed cAG|AdA d2 g||
fed cAG|A2d =cAG|EFD DdD|(3FED F G2G|
A2A =cAD|(3EFG A cde|fed cAG|AdA d2 e||
efd dcd|(3fed f afd|eg=c cBc|(3ed=c e gag|
(ef)g afd|(3efe f gag|fed cAG|ABc dag||
efd dcd|Adf aba|ge=c (3cgc G|=ceg gag|
(ef)g afd|(3efe f gag|fed cAG|ABc d2 e||
ef g ef f|ded =c2 c|ABA GG E|=F2 A GED|
=c2 c cAD|(3EFG A cde|fed cAG|AdA d2 e||
fed edc|cdB =c2 c|A2 A (3GBG E|=F2 F FED|
=C2 C =cAG|(3EFG A cde|fed cAG|AdA d2 e||

